icons/archive-restore.svg

<svg width="24" height="24" viewBox="0 0 24 24" fill="none" xmlns="http://www.w3.org/2000/svg">
<path d="M20 7.55556V19C20 20.6569 18.6568 22 17 22H16.75M3.99999 7.55556V19C3.99999 20.6569 5.34314 22 6.99999 22H7.24999M4.77778 7.55556H19.2222C20.7563 7.55556 22 6.3119 22 4.77777C22 3.24365 20.7563 2 19.2222 2H4.77778C3.24365 2 2 3.24365 2 4.77778C2 6.3119 3.24365 7.55556 4.77778 7.55556Z" stroke="black" stroke-width="2" stroke-linecap="round" stroke-linejoin="round"/>
<path d="M12 12V22M7.5 16C8.97544 15.3442 10.2586 14.3219 11.2273 13.0302L12 12L12.7727 13.0302C13.7414 14.3219 15.0246 15.3442 16.5 16" stroke="black" stroke-width="2" stroke-linecap="round" stroke-linejoin="round"/>
</svg>

<svg xmlns="http://www.w3.org/2000/svg" width="24" height="24" viewBox="0 0 24 24" fill="none" stroke="currentColor" stroke-width="2" stroke-linecap="round" stroke-linejoin="round">
<path d="M20 7.556V19a3 3 0 0 1-3 3h-.25M4 7.556V19a3 3 0 0 0 3 3h.25M4.778 7.556h14.444a2.778 2.778 0 0 0 0-5.556H4.778a2.778 2.778 0 1 0 0 5.556M12 12v10m-4.5-6a9.46 9.46 0 0 0 3.727-2.97L12 12l.773 1.03A9.46 9.46 0 0 0 16.5 16"/>
</svg>
